F1 Grump/assets/track outlines/Shanghai - White_1.svg

<svg xmlns="http://www.w3.org/2000/svg" viewBox="0 0 4373.06 3402.15"><defs><style>.cls-1{fill:#fff;}.cls-2{fill:none;stroke:#fff;stroke-width:77px;}</style></defs><title>Shanghai - White_1</title><g id="Layer_2" data-name="Layer 2"><g id="Layer_1-2" data-name="Layer 1"><path class="cls-1" d="M1158.87,3076.43q-75.75,0-75.75,57.06,0,31.82,17.42,43.68t70.7,23.74q53.28,11.87,75.5,30.8t22.22,62.37q0,107.57-111.6,107.57-36.87,0-92.42-8.59l-18.18-2.52,4-32.32q68.67,9.09,104.54,9.09,74.73,0,74.74-70.2,0-28.28-16.42-40.65t-61.35-21q-59.08-12.61-83.83-32.57T1043.73,3136q0-93.93,112.62-93.93,36.86,0,88.37,7.57l17.17,2.53-3.53,32.82Q1188.16,3076.43,1158.87,3076.43Z"/><path class="cls-1" d="M1552.77,3397.1V3239H1375V3397.1h-38.89V3047.64H1375v156.55h177.76V3047.64h38.38V3397.1Z"/><path class="cls-1" d="M1646.19,3397.1l96-349.46H1827l96,349.46h-38.38l-25.25-89.89H1709.82l-25.25,89.89ZM1771.43,3081l-53,191.4h132.31l-53-191.4Z"/><path class="cls-1" d="M1978,3397.1V3047.64h72.72l133.82,315.12h10.61V3047.64h38.38V3397.1h-71.21L2026.45,3082h-9.6V3397.1Z"/><path class="cls-1" d="M2457.72,3253.18v-34.85h96.45V3390q-63.63,12.12-113.62,12.12-76.26,0-105.8-43.93t-29.54-135.6q0-91.65,29.54-135.84t104.79-44.19a497.1,497.1,0,0,1,97.46,10.1l17.17,3-1.51,32.32q-62.62-10.61-108.58-10.6-58.08,0-78.28,33.58t-20.2,111.6q0,78,20.2,111.61t77.78,33.58a382.4,382.4,0,0,0,72.21-7.07V3253.18Z"/><path class="cls-1" d="M2847.07,3397.1V3239H2669.31V3397.1h-38.89V3047.64h38.89v156.55h177.76V3047.64h38.38V3397.1Z"/><path class="cls-1" d="M2940.49,3397.1l96-349.46h84.84l95.95,349.46h-38.38l-25.25-89.89H3004.12l-25.25,89.89ZM3065.73,3081l-53,191.4H3145L3092,3081Z"/><path class="cls-1" d="M3272.27,3397.1V3047.64h38.88V3397.1Z"/><g id="use4026"><path class="cls-2" d="M1683.52,1226.41c144.16-350.43,285-705.86,417.25-1053.8,16.53-43.52,63.19-82.19,104.31-103.12,45.81-23.33,100.34-32.37,150.54-30.82,52.53,1.61,112.88,11.89,157.66,40.3,37.41,23.74,71.45,64.51,90.08,104.31,16.14,34.48,22.07,81.67,14.23,118.54-8,37.42-33.51,77.84-61.64,104.31-25.61,24.1-64.9,39.61-94.83,33.19-36.45-7.81-74.62-45.87-90.09-88.9-11.72-32.59-62.13-60.37-88.9-69.94-17.48-6.24-59,11.08-74.68,26.08-20.67,19.77-40.45,55.72-40.3,83,.16,31.37,20,73.9,37.93,101.94,21.54,33.6,51.2,71.37,85.35,93.64,38.55,25.15,88,48.3,132.76,43.86,78.32-7.75,170.65-23.22,256-35.56,188-27.17,375.87-54,564.23-78.23,45.55-5.85,99-10.23,143.43,0,206.23,47.45,399.61,98.78,602.17,156.47,36.09,10.27,79.87,19.89,105.5,42.67,17,15.15,18.29,47.88,11.85,66.38-6.21,17.85-25.09,29.18-47.41,37.93-58.28,22.86-118.78,44.46-180.18,56.9-63.46,12.85-130.71,12.49-195.58,10.67-159.56-4.5-317.94-20.57-477.71-29.64-63.08-3.58-128-9.61-189.66,0-60,9.35-120.47,34.15-170.69,65.2-36.7,22.69-68.84,57.18-90.09,96-24.59,44.94-41.45,96.55-52.15,147-11.43,53.87-10.64,113.16-1.19,166,9.51,53.11,30.57,103.26,58.08,151.73,38.87,68.48,89.57,130.55,128,199.14,20,35.72,42.2,74.31,47.42,113.8,5.85,44.27,3.77,97.59-14.23,137.5-18.35,40.7-57,78.15-94.83,104.31-44.39,30.74-99,63.87-151.72,66.38-80,3.81-163.92-36.39-246.56-47.41-35.9-4.79-75-4.51-101.94,10.67-23.6,13.27-37.85,44.31-35.56,73.49,4,51.43,28.48,104.89,47.41,157.65,16,44.58,25.53,88.82,52.16,117.35,17.62,18.89,51.55,25.08,80.6,24.9,69.08-.43,135.54-2.11,205.07,1.18,398.29,18.84,802.51,38.83,1199.6,52.16,26.46.89,49.17-17.43,60.45-39.12,9.27-17.83-5.76-42.74-10.67-64-9.31-40.37-42.29-85.73-32-120.91,16.1-55.06,43.7-72.45,81.79-79.42,40.33-7.37,92.66-8.54,136.31,2.38,51.18,12.79,101.4,37,141.06,69.93,34.62,28.73,56.35,58.79,69.94,101.94,13.28,42.19,16.3,92.67,7.11,136.32-9.77,46.44-39,90.92-66.38,130.39-26.35,38-57.07,74.14-96,98.39-44.82,27.9-97.55,50.8-150.55,56.9-125.6,14.45-253.66,5.36-381.68,4.74-1179-5.71-2358-.44-3534.78-19-27.55-.43-52.53-11.72-60.45-28.45-6.3-13.3,21.59-48.25,40.3-58.08,74.54-39.17,149.61-68.92,234.7-81.79,103-15.58,200.09-7.67,305.83-13,174.68-8.86,339.16-14.3,512.08-22.52,25.13-1.2,66.26-10.87,77-34.38,14.65-31.93,20.6-69.79,33.19-104.31,147-403.27,277.6-806.07,441-1203.15Z"/></g></g></g></svg>

<svg width="4373" height="2833" viewBox="0 0 4373 2833" fill="none" xmlns="http://www.w3.org/2000/svg">
<g clip-path="url(#clip0_13_799)">
<path d="M1683.52 1226.41C1827.68 875.98 1968.52 520.55 2100.77 172.61C2117.3 129.09 2163.96 90.4199 2205.08 69.4899C2250.89 46.1599 2305.42 37.1199 2355.62 38.6699C2408.15 40.2799 2468.5 50.5599 2513.28 78.9699C2550.69 102.71 2584.73 143.48 2603.36 183.28C2619.5 217.76 2625.43 264.95 2617.59 301.82C2609.59 339.24 2584.08 379.66 2555.95 406.13C2530.34 430.23 2491.05 445.74 2461.12 439.32C2424.67 431.51 2386.5 393.45 2371.03 350.42C2359.31 317.83 2308.9 290.05 2282.13 280.48C2264.65 274.24 2223.13 291.56 2207.45 306.56C2186.78 326.33 2167 362.28 2167.15 389.56C2167.31 420.93 2187.15 463.46 2205.08 491.5C2226.62 525.1 2256.28 562.87 2290.43 585.14C2328.98 610.29 2378.43 633.44 2423.19 629C2501.51 621.25 2593.84 605.78 2679.19 593.44C2867.19 566.27 3055.06 539.44 3243.42 515.21C3288.97 509.36 3342.42 504.98 3386.85 515.21C3593.08 562.66 3786.46 613.99 3989.02 671.68C4025.11 681.95 4068.89 691.57 4094.52 714.35C4111.52 729.5 4112.81 762.23 4106.37 780.73C4100.16 798.58 4081.28 809.91 4058.96 818.66C4000.68 841.52 3940.18 863.12 3878.78 875.56C3815.32 888.41 3748.07 888.05 3683.2 886.23C3523.64 881.73 3365.26 865.66 3205.49 856.59C3142.41 853.01 3077.49 846.98 3015.83 856.59C2955.83 865.94 2895.36 890.74 2845.14 921.79C2808.44 944.48 2776.3 978.97 2755.05 1017.79C2730.46 1062.73 2713.6 1114.34 2702.9 1164.79C2691.47 1218.66 2692.26 1277.95 2701.71 1330.79C2711.22 1383.9 2732.28 1434.05 2759.79 1482.52C2798.66 1551 2849.36 1613.07 2887.79 1681.66C2907.79 1717.38 2929.99 1755.97 2935.21 1795.46C2941.06 1839.73 2938.98 1893.05 2920.98 1932.96C2902.63 1973.66 2863.98 2011.11 2826.15 2037.27C2781.76 2068.01 2727.15 2101.14 2674.43 2103.65C2594.43 2107.46 2510.51 2067.26 2427.87 2056.24C2391.97 2051.45 2352.87 2051.73 2325.93 2066.91C2302.33 2080.18 2288.08 2111.22 2290.37 2140.4C2294.37 2191.83 2318.85 2245.29 2337.78 2298.05C2353.78 2342.63 2363.31 2386.87 2389.94 2415.4C2407.56 2434.29 2441.49 2440.48 2470.54 2440.3C2539.62 2439.87 2606.08 2438.19 2675.61 2441.48C3073.9 2460.32 3478.12 2480.31 3875.21 2493.64C3901.67 2494.53 3924.38 2476.21 3935.66 2454.52C3944.93 2436.69 3929.9 2411.78 3924.99 2390.52C3915.68 2350.15 3882.7 2304.79 3892.99 2269.61C3909.09 2214.55 3936.69 2197.16 3974.78 2190.19C4015.11 2182.82 4067.44 2181.65 4111.09 2192.57C4162.27 2205.36 4212.49 2229.57 4252.15 2262.5C4286.77 2291.23 4308.5 2321.29 4322.09 2364.44C4335.37 2406.63 4338.39 2457.11 4329.2 2500.76C4319.43 2547.2 4290.2 2591.68 4262.82 2631.15C4236.47 2669.15 4205.75 2705.29 4166.82 2729.54C4122 2757.44 4069.27 2780.34 4016.27 2786.44C3890.67 2800.89 3762.61 2791.8 3634.59 2791.18C2455.59 2785.47 1276.59 2790.74 99.8111 2772.18C72.2611 2771.75 47.2811 2760.46 39.3611 2743.73C33.0611 2730.43 60.9511 2695.48 79.6611 2685.65C154.201 2646.48 229.271 2616.73 314.361 2603.86C417.361 2588.28 514.451 2596.19 620.191 2590.86C794.871 2582 959.351 2576.56 1132.27 2568.34C1157.4 2567.14 1198.53 2557.47 1209.27 2533.96C1223.92 2502.03 1229.87 2464.17 1242.46 2429.65C1389.46 2026.38 1520.06 1623.58 1683.46 1226.5L1683.52 1226.41Z" stroke="white" stroke-width="77"/>
</g>
<defs>
<clipPath id="clip0_13_799">
<rect width="4373" height="2833" fill="white"/>
</clipPath>
</defs>
</svg>
